pixmaps/ice.svg

<?xml version="1.0" encoding="UTF-8"?>
<!-- Generator: Adobe Illustrator 12.0.1, SVG Export Plug-In . SVG Version: 6.00 Build 51448)  -->
<!DOCTYPE svg PUBLIC "-//W3C//DTD SVG 1.1//EN" "http://www.w3.org/Graphics/SVG/1.1/DTD/svg11.dtd" [
	<!ENTITY ns_svg "http://www.w3.org/2000/svg">
	<!ENTITY ns_xlink "http://www.w3.org/1999/xlink">
]>
<svg version="1.1" xmlns="http://www.w3.org/2000/svg" xmlns:xlink="http://www.w3.org/1999/xlink" width="223.17236" height="207.59424" viewBox="0 0 223.172 207.594" overflow="visible" enable-background="new 0 0 223.17236 207.59424" xml:space="preserve">
<g id="Layer_1">
	<path fill="#30EEFB" d="M120.11377,0l87.46777,26.18115c0,0,4.06348,110.19531-0.49707,153.98242   c-35.53613-10.84863-97.05371-35.83008-97.05371-35.83008S15.81738,190.96338,7.8623,184.12451   c-7.95557-6.83887-5.24561-166.2915-5.24561-166.2915L120.11377,0z"/>
	<path fill="#65F3FA" d="M221.03662,115.26514C224.95166,116.98779,222.57764,117.21533,221.03662,115.26514L221.03662,115.26514z"/>
	<path fill="#65F3FA" d="M205.83838,178.84717C205.83838,178.82959,205.8335,178.83252,205.83838,178.84717"/>
	<line fill="none" stroke="#65F3FA" x1="140.16553" y1="207.09131" x2="140.16943" y2="207.09424"/>
	<g>
		<g>
			<path fill="none" d="M123.84619,35.54297c-1.50098,45.99951-2.88574,67.85693-5.45508,111.79639"/>
			<path fill="#3EC3F7" d="M118.84619,35.54297c-1.22461,37.30029-3.27539,74.5415-5.45508,111.79639     c-0.16504,2.82422,0.94238,10,5,10c4.28125,0,4.83398-7.16797,5-10c2.17969-37.25488,4.23047-74.49609,5.45508-111.79639     c0.09277-2.8291-0.89355-10-5-10C119.61377,25.54297,118.93896,32.70947,118.84619,35.54297L118.84619,35.54297z"/>
		</g>
	</g>
	<path opacity="0.65" fill="#D8FCFD" d="M120.71924,0.18164c14.71191,5.04053,88.9834,20.00781,88.59668,25.95947   c-0.27246,4.16016-83.74316,19.19531-89.45312,17.38184C84.81055,32.39062,37.31348,19.71533,0,19.74121L120.71924,0.18164z"/>
	<path fill="#3EC3F7" d="M112.18701,142.84814c0,0,94.89746,30.63086,94.89746,37.31543s-88.15137,26.5459-88.15137,26.5459   S32.06152,192.66064,9.3042,182.75439C-13.45264,172.84814,112.18701,142.84814,112.18701,142.84814z"/>
	<g opacity="0.4">
		<path fill-rule="evenodd" clip-rule="evenodd" fill="#D8FCFD" d="M205.64111,28.13721    c-9.2627,2.87549-81.55078,13.56494-81.83887,18.68457c-1.55371,27.63086-2.58984,55.31738-2.74609,82.99121    c-0.08887,15.78906-0.11523,31.72559,1.58105,47.44824c0.10645,0.98145,3.99609,23.65723,8.45996,15.81152    c6.12598-10.76953-1.87012-33.44336-3.71191-44.72363c-2.37598-14.57422,2.01367-27.80859,7.21777-41.61133    c8.33203-22.09717,27.69141-8.30957,26.77832,11.21777c-0.65039,13.9043-9.77051,31.88672-12.56543,46.04199    c-1.85156,9.38379-4.27734,25.07422,2.73926,33.36426c6.22559,7.35645,35.44727-10.54102,41.3584-13.68555    c26.00391-13.83105,18.03613-39.94141,17.88574-66.20508c-0.10449-18.41895-0.3877-36.8457-1.20508-55.24805    C209.271,54.91748,211.46729,34.02539,205.64111,28.13721"/>
	</g>
	<g opacity="0.4">
		<path fill-rule="evenodd" clip-rule="evenodd" fill="#CAFCFC" d="M87.51367,13.68896    c28.32568,8.12988,47.3833,33.41992,77.75146,19.35693C152.87939,22.24854,111.51123,10.19678,87.51367,13.68896z"/>
		<g>
			<path fill="none" d="M87.51367,13.68896c28.32568,8.12988,47.3833,33.41992,77.75146,19.35693     C152.87939,22.24854,111.51123,10.19678,87.51367,13.68896z"/>
			<g>
				<path fill="#D6EEF4" d="M146.69775,47.47705c0.01465-0.4043-0.26465-0.80566,0.18359-0.99561      c1.38477-0.41699,2.56348,0.98096,3.9707,0.45312l0.05371-0.65869c1.10254,0.19775,2.27734,0.46289,3.47559,0.5708      c2.125-0.38281,4.17871-0.99805,6.11816-1.76709c-0.11621-0.21484-0.19727-0.41895-0.02441-0.55957      c0.7666-0.41113,1.98828-0.4834,3.13965-0.85107l0.46582-0.28613c0.08203-0.17871,0.03809-0.40674,0.01074-0.54639      c0.51758-0.16162,0.99316-0.2666,1.44043-0.354l1.82129-1.30225l0.89648-0.66113l0.22266-0.16602l0.11133-0.08301      l0.01367-0.01025l0.00293-0.00244c0.84082-5.8877-1.875,13.1748,1.88477-13.2002l-0.00879-0.00439l-0.03418-0.01709      l-0.06934-0.03418l-0.55371-0.27051c-1.4707-0.67188-2.9668-1.49658-4.39355-1.8916      c-2.88379-1.02539-5.74023-1.6792-8.65723-2.28369c-1.36328,0.03223-2.70312,0.07812-3.8584-0.15186      c-1.65332-0.45166-3.49805-1.62695-5.00488-2.33057c-0.60742,2.21777-4.69824,1.95264-4.74219,4.4126      c-0.97461-0.40186-2.43945-1.021-2.72852-0.41895c-0.85938,1.77832-2.35059,3.6709-5.26855,3.97412      c-1.07617-0.07617-2.41113-1.30225-2.88477-1.02148c-0.7373,0.44434,0.93066,1.69531,0.18945,2.13818      c7.20117,2.84912,14.57031,4.70117,20.86914,8.10107c0.71582,0.04102,1.98633,0.58984,3.61816,1.39648      c0.45117,0.19824,0.70215,0.4248,1.09277,0.65186l0.55762,0.35107l0.28809,0.17969l0.14648,0.09082l0.07324,0.0459      l0.03711,0.02295l0.01855,0.01123l0.00977,0.00586l0.00488,0.00293c-0.47363,3.34229,4.14746-29.0957,2.1875-15.36328      c-0.99316,0.46582-2.03906,1.06836-3.12305,1.45752c-4.31445,1.88232-8.96094,2.23828-10.83398,1.97266l-0.34082,0.03662      c-2.05078-0.14404-4.53516-0.29053-6.55078,0.16846c-0.95117,0.3501-1.98535,0.79004-3.05078,1.13477l0.85254,1.41602      c-0.91992-0.31299-1.83105-0.60254-2.3125-0.32227c-2.29297,0.2876-1.56348,1.73975-1.19336,3.5127      c0.39941,0.84375-0.7373,1.61133,0.0332,2.55713c-0.69922-0.22021-1.03125-0.37598-1.71973-0.62842      c-0.2832,0.60693,2.24316,0.36816,1.4541,1.23145c-0.61523-0.4292-1.48145-0.31592-2.18066-0.57178      c-0.03906,0.9248,2.34863,1.11572,2.00391,1.89307c-0.47559,0.10303-1.65918-1.76855-2.13672-0.77539      c-0.09668,0.19824,0.61328,0.46436,0.96875,0.59863c-2.30859-0.3877-3.91699,0.104-2.23828,1.95801      c-0.73047-0.26367-1.56055-1.09131-2.36719-1.22314l-0.00098,0.01855c0.36133,0.17285,0.93066,0.625,1.27441,0.76758      l-1.26367-0.53076l0.06348,0.50781c0.27441,0.24463,0.56152,0.46533,0.89258,0.60596l-0.84668-0.35596      c0.08984,0.41162,0.2207,0.82373,0.38574,1.22754c0.77832,1.05615,1.52832,2.34668,2.1084,2.57227      C135.86865,45.93018,141.21338,47.29883,146.69775,47.47705z"/>
			</g>
		</g>
	</g>
	<path opacity="0.5" fill-rule="evenodd" clip-rule="evenodd" fill="#D8FCFD" d="M14.76758,170.56689   c-2.69043-32.13867-2.9917-69.88477-0.90625-113.23047C34.48779,13.45947,34.79004,51.20557,14.76758,170.56689z"/>
	<g opacity="0.65">
		<path fill-rule="evenodd" clip-rule="evenodd" fill="#D8FCFD" d="M122.45752,46.8501    c-5.02148-15.64355-91.76074-24.93994-108.11279-25.68896c-8.69824-0.39746-7.396,97.7876-7.37256,106.81494    c0.04297,16.79492-0.22363,33.86133,1.70752,50.58398c1.88818,16.35547,29.48389,14.19727,43.17676,16.3457    c6.24951,0.98242,50.11523,12.59375,42.5752-2.03711c-8.08252-15.68555-16.54004-12.35156-31.92773-11.30664    c-3.78174,0.25586-28.06787-8.11328-27.92871-10.96484c0.04395-0.91406,15.56152-7.55664,17.03711-8.76172    c8.35059-6.82422,8.72998-15.99414,7.68213-25.54688c-2.17285-19.81445,2.98828-56.21484,8.08203-71.2085    c4.21387-12.4043,18.42041,32.79883,18.42041,32.79883s-10.23633,28.68701-4.43555,47.73975    c1.93018,6.33789,6.40674,34.34961,17.83154,32.28711c14.87695-2.68555,16.0752-17.03711,17.04297-27.7832    c1.72754-19.19922,3.30762-38.41406,4.66016-57.63916C121.82959,79.22021,126.64307,59.88965,122.45752,46.8501"/>
	</g>
	<g opacity="0.45">
		<g>
			<path fill="none" d="M100.76514,47.06055c6.03027,21.68359,12.05957,81.31787-2.0083,113.06787"/>
			<g>
				<path fill="#DDFCFD" d="M95.31689,75.17334c0.40283-0.03271,0.76172-0.44336,1.0127,0.10254      c0.60693,1.74414-0.60889,3.32227-0.06934,5.07373l0.66113,0.06787c-0.15039,1.41504-0.37988,2.89014-0.55127,4.38623      c0.26123,2.70996,0.61523,5.40332,0.979,8.08887c0.23535-0.08203,0.45264-0.12695,0.55029,0.13867      c0.21631,1.11523,0.04541,2.68262,0.0376,4.29688l0.14014,0.70703c0.14746,0.17871,0.37891,0.21973,0.52051,0.24512      c0.00195,0.73047-0.02539,1.38281-0.0874,1.98438c1.42725,7.89307,2.78613,15.99268,3.53613,24.88916      c0.4082,1.89844,0.81543,3.82227,0.90283,5.65234c-0.06982,2.68359-1.06006,5.97656-1.52051,8.51953      c2.35986-0.01562,2.11719,6.5293,4.65723,5.79883c-0.36475,1.76562-1.17627,4.36328-0.6084,4.66797      c1.70996,0.92188,3.69043,2.88281,3.10547,8.19531c-0.47607,2.03125-2.37939,4.66211-2.27832,5.48633      c0.15332,1.31055,2.24219-1.94336,2.40283-0.64258c6.57715-14.46094,7.47461-28.69531,8.39062-43.01172      c-0.13867-5.05664-1.32812-37.54736-2.40625-45.85742l-0.11719-0.75244c-0.37305-4.55225-1.3125-10.05371-2.84473-13.74854      c-0.8584-1.67285-1.75977-3.33057-2.77197-4.98486c-0.19287,0.89941-0.42236,1.729-0.68604,2.45264      c-0.25195-1.79639-0.62549-3.60645-1.16016-4.20605c-1.75439-3.59717-2.42578-1.16113-3.66699,0.5874      c-0.46045,1.16602-1.77686,0.00635-2.1333,1.73682c-0.20508-1.14844-0.30762-1.72461-0.51123-2.87988      c-0.6665,0.00928,1.05664,3.45654-0.15479,2.87988c0.00977-1.14502-0.6123-2.2998-0.84668-3.42969      c-0.75049,0.57812,0.49756,4.00293-0.38379,3.99951c-0.32373-0.56006,0.50293-3.43066-0.60596-3.41064      c-0.21826,0.00391-0.01904,1.14062,0.08154,1.70752c-1.06006-3.41504-2.60449-4.90576-2.97168-1.61865      c-0.23047-1.05078-0.15576-2.65186-0.57715-3.72656l-0.01465,0.01318c0.10352,0.56494,0.12354,1.57764,0.23682,2.09082      l-0.41406-1.90234l-0.35596,0.44922c-0.0127,0.50293,0,0.99854,0.10596,1.48926l-0.27295-1.25391l-0.72021,1.31299      c-0.30908,1.63574-0.96582,3.23486-0.8418,4.07178C93.95996,61.46094,94.64062,68.34521,95.31689,75.17334z"/>
			</g>
		</g>
	</g>
</g>
<g id="Layer_2">
</g>
</svg>

<?xml version="1.0" encoding="UTF-8" standalone="no"?>
<!-- Generator: Adobe Illustrator 12.0.1, SVG Export Plug-In . SVG Version: 6.00 Build 51448)  -->
<svg
   xmlns:dc="http://purl.org/dc/elements/1.1/"
   xmlns:cc="http://creativecommons.org/ns#"
   xmlns:rdf="http://www.w3.org/1999/02/22-rdf-syntax-ns#"
   xmlns:svg="http://www.w3.org/2000/svg"
   xmlns="http://www.w3.org/2000/svg"
   xmlns:sodipodi="http://sodipodi.sourceforge.net/DTD/sodipodi-0.dtd"
   xmlns:inkscape="http://www.inkscape.org/namespaces/inkscape"
   version="1.1"
   width="223.17236"
   height="207.59424"
   viewBox="0 0 223.172 207.594"
   overflow="visible"
   enable-background="new 0 0 223.17236 207.59424"
   xml:space="preserve"
   id="svg2"
   sodipodi:version="0.32"
   inkscape:version="0.46"
   sodipodi:docname="ice.svg"
   inkscape:output_extension="org.inkscape.output.svg.inkscape"><metadata
   id="metadata61"><rdf:RDF><cc:Work
       rdf:about=""><dc:format>image/svg+xml</dc:format><dc:type
         rdf:resource="http://purl.org/dc/dcmitype/StillImage" /></cc:Work></rdf:RDF></metadata><defs
   id="defs59"><inkscape:perspective
     sodipodi:type="inkscape:persp3d"
     inkscape:vp_x="0 : 103.79712 : 1"
     inkscape:vp_y="0 : 1000 : 0"
     inkscape:vp_z="223.17236 : 103.79712 : 1"
     inkscape:persp3d-origin="111.58618 : 69.198079 : 1"
     id="perspective63" /></defs><sodipodi:namedview
   inkscape:window-height="934"
   inkscape:window-width="1280"
   inkscape:pageshadow="2"
   inkscape:pageopacity="0.0"
   guidetolerance="10.0"
   gridtolerance="10.0"
   objecttolerance="10.0"
   borderopacity="1.0"
   bordercolor="#666666"
   pagecolor="#ffffff"
   id="base"
   showgrid="false"
   inkscape:zoom="2.4115872"
   inkscape:cx="66.838791"
   inkscape:cy="90.194442"
   inkscape:window-x="0"
   inkscape:window-y="25"
   inkscape:current-layer="Layer_1" />
<g
   id="Layer_1">
	<path
   fill="#30EEFB"
   d="M120.11377,0l87.46777,26.18115c0,0,4.06348,110.19531-0.49707,153.98242   c-35.53613-10.84863-97.05371-35.83008-97.05371-35.83008S15.81738,190.96338,7.8623,184.12451   c-7.95557-6.83887-5.24561-166.2915-5.24561-166.2915L120.11377,0z"
   id="path5"
   style="fill:#addef5;fill-opacity:1" /><g
   style="fill:#8adbff;fill-opacity:1"
   id="g13">
		<g
   style="fill:#8adbff;fill-opacity:1"
   id="g15">
			<path
   style="fill:#8adbff;fill-opacity:1"
   d="M 123.84619,35.54297 C 122.34521,81.54248 120.96045,103.3999 118.39111,147.33936"
   id="path17" />
			<path
   d="M 118.84619,35.54297 C 117.62158,72.84326 115.5708,110.08447 113.39111,147.33936 C 113.22607,150.16358 114.33349,157.33936 118.39111,157.33936 C 122.67236,157.33936 123.22509,150.17139 123.39111,147.33936 C 125.5708,110.08448 127.62158,72.84327 128.84619,35.54297 C 128.93896,32.71387 127.95264,25.54297 123.84619,25.54297 C 119.61377,25.54297 118.93896,32.70947 118.84619,35.54297 L 118.84619,35.54297 z"
   id="path19"
   style="fill:#8adbff;fill-opacity:1" />
		</g>
	</g>
	<path
   fill="#65F3FA"
   d="M221.03662,115.26514C224.95166,116.98779,222.57764,117.21533,221.03662,115.26514L221.03662,115.26514z"
   id="path7" />
	<path
   fill="#65F3FA"
   d="M205.83838,178.84717C205.83838,178.82959,205.8335,178.83252,205.83838,178.84717"
   id="path9" />
	<line
   fill="none"
   stroke="#65F3FA"
   x1="140.16553"
   y1="207.09131"
   x2="140.16943"
   y2="207.09424"
   id="line11" />
	
	<path
   d="M120.71924,0.18164c14.71191,5.04053,88.9834,20.00781,88.59668,25.95947   c-0.27246,4.16016-83.74316,19.19531-89.45312,17.38184C84.81055,32.39062,37.31348,19.71533,0,19.74121L120.71924,0.18164z"
   id="path21"
   fill="#D8FCFD"
   opacity="0.65" />
	<path
   d="M 112.18701,142.84814 C 112.18701,142.84814 207.08447,173.479 207.08447,180.16357 C 207.08447,186.84814 118.9331,206.70947 118.9331,206.70947 C 118.9331,206.70947 32.06152,192.66064 9.3042,182.75439 C -13.45264,172.84814 112.18701,142.84814 112.18701,142.84814 z"
   id="path23"
   style="fill:#8adbff;fill-opacity:1" />
	<g
   opacity="0.4"
   id="g25">
		<path
   fill-rule="evenodd"
   clip-rule="evenodd"
   fill="#D8FCFD"
   d="M205.64111,28.13721    c-9.2627,2.87549-81.55078,13.56494-81.83887,18.68457c-1.55371,27.63086-2.58984,55.31738-2.74609,82.99121    c-0.08887,15.78906-0.11523,31.72559,1.58105,47.44824c0.10645,0.98145,3.99609,23.65723,8.45996,15.81152    c6.12598-10.76953-1.87012-33.44336-3.71191-44.72363c-2.37598-14.57422,2.01367-27.80859,7.21777-41.61133    c8.33203-22.09717,27.69141-8.30957,26.77832,11.21777c-0.65039,13.9043-9.77051,31.88672-12.56543,46.04199    c-1.85156,9.38379-4.27734,25.07422,2.73926,33.36426c6.22559,7.35645,35.44727-10.54102,41.3584-13.68555    c26.00391-13.83105,18.03613-39.94141,17.88574-66.20508c-0.10449-18.41895-0.3877-36.8457-1.20508-55.24805    C209.271,54.91748,211.46729,34.02539,205.64111,28.13721"
   id="path27" />
	</g>
	<g
   opacity="0.4"
   id="g29">
		<path
   fill-rule="evenodd"
   clip-rule="evenodd"
   fill="#CAFCFC"
   d="M87.51367,13.68896    c28.32568,8.12988,47.3833,33.41992,77.75146,19.35693C152.87939,22.24854,111.51123,10.19678,87.51367,13.68896z"
   id="path31" />
		<g
   id="g33">
			<path
   fill="none"
   d="M87.51367,13.68896c28.32568,8.12988,47.3833,33.41992,77.75146,19.35693     C152.87939,22.24854,111.51123,10.19678,87.51367,13.68896z"
   id="path35" />
			<g
   id="g37">
				<path
   fill="#D6EEF4"
   d="M146.69775,47.47705c0.01465-0.4043-0.26465-0.80566,0.18359-0.99561      c1.38477-0.41699,2.56348,0.98096,3.9707,0.45312l0.05371-0.65869c1.10254,0.19775,2.27734,0.46289,3.47559,0.5708      c2.125-0.38281,4.17871-0.99805,6.11816-1.76709c-0.11621-0.21484-0.19727-0.41895-0.02441-0.55957      c0.7666-0.41113,1.98828-0.4834,3.13965-0.85107l0.46582-0.28613c0.08203-0.17871,0.03809-0.40674,0.01074-0.54639      c0.51758-0.16162,0.99316-0.2666,1.44043-0.354l1.82129-1.30225l0.89648-0.66113l0.22266-0.16602l0.11133-0.08301      l0.01367-0.01025l0.00293-0.00244c0.84082-5.8877-1.875,13.1748,1.88477-13.2002l-0.00879-0.00439l-0.03418-0.01709      l-0.06934-0.03418l-0.55371-0.27051c-1.4707-0.67188-2.9668-1.49658-4.39355-1.8916      c-2.88379-1.02539-5.74023-1.6792-8.65723-2.28369c-1.36328,0.03223-2.70312,0.07812-3.8584-0.15186      c-1.65332-0.45166-3.49805-1.62695-5.00488-2.33057c-0.60742,2.21777-4.69824,1.95264-4.74219,4.4126      c-0.97461-0.40186-2.43945-1.021-2.72852-0.41895c-0.85938,1.77832-2.35059,3.6709-5.26855,3.97412      c-1.07617-0.07617-2.41113-1.30225-2.88477-1.02148c-0.7373,0.44434,0.93066,1.69531,0.18945,2.13818      c7.20117,2.84912,14.57031,4.70117,20.86914,8.10107c0.71582,0.04102,1.98633,0.58984,3.61816,1.39648      c0.45117,0.19824,0.70215,0.4248,1.09277,0.65186l0.55762,0.35107l0.28809,0.17969l0.14648,0.09082l0.07324,0.0459      l0.03711,0.02295l0.01855,0.01123l0.00977,0.00586l0.00488,0.00293c-0.47363,3.34229,4.14746-29.0957,2.1875-15.36328      c-0.99316,0.46582-2.03906,1.06836-3.12305,1.45752c-4.31445,1.88232-8.96094,2.23828-10.83398,1.97266l-0.34082,0.03662      c-2.05078-0.14404-4.53516-0.29053-6.55078,0.16846c-0.95117,0.3501-1.98535,0.79004-3.05078,1.13477l0.85254,1.41602      c-0.91992-0.31299-1.83105-0.60254-2.3125-0.32227c-2.29297,0.2876-1.56348,1.73975-1.19336,3.5127      c0.39941,0.84375-0.7373,1.61133,0.0332,2.55713c-0.69922-0.22021-1.03125-0.37598-1.71973-0.62842      c-0.2832,0.60693,2.24316,0.36816,1.4541,1.23145c-0.61523-0.4292-1.48145-0.31592-2.18066-0.57178      c-0.03906,0.9248,2.34863,1.11572,2.00391,1.89307c-0.47559,0.10303-1.65918-1.76855-2.13672-0.77539      c-0.09668,0.19824,0.61328,0.46436,0.96875,0.59863c-2.30859-0.3877-3.91699,0.104-2.23828,1.95801      c-0.73047-0.26367-1.56055-1.09131-2.36719-1.22314l-0.00098,0.01855c0.36133,0.17285,0.93066,0.625,1.27441,0.76758      l-1.26367-0.53076l0.06348,0.50781c0.27441,0.24463,0.56152,0.46533,0.89258,0.60596l-0.84668-0.35596      c0.08984,0.41162,0.2207,0.82373,0.38574,1.22754c0.77832,1.05615,1.52832,2.34668,2.1084,2.57227      C135.86865,45.93018,141.21338,47.29883,146.69775,47.47705z"
   id="path39" />
			</g>
		</g>
	</g>
	<path
   opacity="0.5"
   fill-rule="evenodd"
   clip-rule="evenodd"
   fill="#D8FCFD"
   d="M14.76758,170.56689   c-2.69043-32.13867-2.9917-69.88477-0.90625-113.23047C34.48779,13.45947,34.79004,51.20557,14.76758,170.56689z"
   id="path41" />
	
	<g
   opacity="0.45"
   id="g47">
		<g
   id="g49">
			<path
   fill="none"
   d="M100.76514,47.06055c6.03027,21.68359,12.05957,81.31787-2.0083,113.06787"
   id="path51" />
			<g
   id="g53">
				<path
   fill="#DDFCFD"
   d="M95.31689,75.17334c0.40283-0.03271,0.76172-0.44336,1.0127,0.10254      c0.60693,1.74414-0.60889,3.32227-0.06934,5.07373l0.66113,0.06787c-0.15039,1.41504-0.37988,2.89014-0.55127,4.38623      c0.26123,2.70996,0.61523,5.40332,0.979,8.08887c0.23535-0.08203,0.45264-0.12695,0.55029,0.13867      c0.21631,1.11523,0.04541,2.68262,0.0376,4.29688l0.14014,0.70703c0.14746,0.17871,0.37891,0.21973,0.52051,0.24512      c0.00195,0.73047-0.02539,1.38281-0.0874,1.98438c1.42725,7.89307,2.78613,15.99268,3.53613,24.88916      c0.4082,1.89844,0.81543,3.82227,0.90283,5.65234c-0.06982,2.68359-1.06006,5.97656-1.52051,8.51953      c2.35986-0.01562,2.11719,6.5293,4.65723,5.79883c-0.36475,1.76562-1.17627,4.36328-0.6084,4.66797      c1.70996,0.92188,3.69043,2.88281,3.10547,8.19531c-0.47607,2.03125-2.37939,4.66211-2.27832,5.48633      c0.15332,1.31055,2.24219-1.94336,2.40283-0.64258c6.57715-14.46094,7.47461-28.69531,8.39062-43.01172      c-0.13867-5.05664-1.32812-37.54736-2.40625-45.85742l-0.11719-0.75244c-0.37305-4.55225-1.3125-10.05371-2.84473-13.74854      c-0.8584-1.67285-1.75977-3.33057-2.77197-4.98486c-0.19287,0.89941-0.42236,1.729-0.68604,2.45264      c-0.25195-1.79639-0.62549-3.60645-1.16016-4.20605c-1.75439-3.59717-2.42578-1.16113-3.66699,0.5874      c-0.46045,1.16602-1.77686,0.00635-2.1333,1.73682c-0.20508-1.14844-0.30762-1.72461-0.51123-2.87988      c-0.6665,0.00928,1.05664,3.45654-0.15479,2.87988c0.00977-1.14502-0.6123-2.2998-0.84668-3.42969      c-0.75049,0.57812,0.49756,4.00293-0.38379,3.99951c-0.32373-0.56006,0.50293-3.43066-0.60596-3.41064      c-0.21826,0.00391-0.01904,1.14062,0.08154,1.70752c-1.06006-3.41504-2.60449-4.90576-2.97168-1.61865      c-0.23047-1.05078-0.15576-2.65186-0.57715-3.72656l-0.01465,0.01318c0.10352,0.56494,0.12354,1.57764,0.23682,2.09082      l-0.41406-1.90234l-0.35596,0.44922c-0.0127,0.50293,0,0.99854,0.10596,1.48926l-0.27295-1.25391l-0.72021,1.31299      c-0.30908,1.63574-0.96582,3.23486-0.8418,4.07178C93.95996,61.46094,94.64062,68.34521,95.31689,75.17334z"
   id="path55" />
			</g>
		</g>
	</g>
<g
   opacity="0.65"
   id="g43">
		<path
   fill-rule="evenodd"
   clip-rule="evenodd"
   fill="#D8FCFD"
   d="M122.45752,46.8501    c-5.02148-15.64355-91.76074-24.93994-108.11279-25.68896c-8.69824-0.39746-7.396,97.7876-7.37256,106.81494    c0.04297,16.79492-0.22363,33.86133,1.70752,50.58398c1.88818,16.35547,29.48389,14.19727,43.17676,16.3457    c6.24951,0.98242,50.11523,12.59375,42.5752-2.03711c-8.08252-15.68555-16.54004-12.35156-31.92773-11.30664    c-3.78174,0.25586-28.06787-8.11328-27.92871-10.96484c0.04395-0.91406,15.56152-7.55664,17.03711-8.76172    c8.35059-6.82422,8.72998-15.99414,7.68213-25.54688c-2.17285-19.81445,2.98828-56.21484,8.08203-71.2085    c4.21387-12.4043,18.42041,32.79883,18.42041,32.79883s-10.23633,28.68701-4.43555,47.73975    c1.93018,6.33789,6.40674,34.34961,17.83154,32.28711c14.87695-2.68555,16.0752-17.03711,17.04297-27.7832    c1.72754-19.19922,3.30762-38.41406,4.66016-57.63916C121.82959,79.22021,126.64307,59.88965,122.45752,46.8501"
   id="path45" />
	</g></g>
<g
   id="Layer_2">
</g>
</svg>
